!!!OTL: Krippenlied (2-3) S. 16
!!!id: P0876
**kern
*clefG2
*k[]
*G:
{4d
=1
2g
4a
=2
4b
4a
4dd
=3
4cc#
4dd
4ee
=4
2.dd
=5
4a
4b
4cc#
=6
2dd}
=7
{8b
8cc
=8
2dd
4ee
=9
4dd
4cc
4b
=10
4cc
4b
4a
=11
4b
4a}
=12
{4g
=13
2a
8dd
8cc
=14
2b
4a
=15
2g}
==
*-
!!!minrhy: 8
!!!meters: 3/4 ]  ZZ[3
!!!cut: Krippenlied (2-3) S. 16
!!!reg: Lothringen
!!!trd: PINCK, Louis: Verklingende Weisen, Bd 2, Metz 1928
!!!rhy1: X_  X__X_  X_X_X_  X_X_X_  X__.  X_X_X_  X__
!!!rhy2: XX  X__X_  X_X_X_  X_X_X_  X_X_
!!!key: P0876  08  G 3/4 ]  ZZ[3
!!!mod: HEPTATONIK DUR ?]  AMBITUS[9
!!!kad: 521
!!!akz: 134#525_5543_231_
!!!fot: 'a__b__c__
!!!for: 'a__b__c__
!!!fok: '~a_^d_^__
!! PHRAS[AUFTAKTIG]
!!!fkt: geistliche, religiöse Lieder
!! LOTH VKL
!! PR[47] 2K[0] 2G[16] 3K[0] 3G[0] 4A[0] 4Ü[0] 5A[0] 6K[5] 6G[0]
!! 7K[0] 7G[0] 8A[0] MEHR[0] SI[21] ABS[19] SR[16] SP[5]
!! ST[0] 2k[5] 2g[26] 3k[0] 3g[0] 4d[0] 4ü[0] 5d[0] 6k[0] 6g[0]
!! 7k[0] 7g[0] 8d[0] mehr[0] si[32] dm[-11] sr[32] sp[0]
!! 1F[95] 2F[5] 3F[0] 4F[0] LF[0] 2P[0] 3P[0] 4P[0] TRI[0] DF[2] AB[20]
!! TF[0] U3K[0] U3[0] U4[0] U4Ü[0] U5[0] U6K[0] U6[5] U7K[0] U7[0]
!! N1[20] N2K[0] N2[35] N3K[0] N3[15] N4[25] N4Ü[0] N5[0] N6K[0] N6[0]
!!!n7k: 0] N7[0] O1[0] O2K[0] O2[0] O3K[0] O3[0] HÖ[0
